X:1
T:No Job Blues
M:4/4
L:1/8
K:C
 cc| cc_B-cG-E E2| z2 c2 G2 _E2| C8| z4 z2 GG| GGG-F_E-C C2| z2 G2G-C_E-C|\
 C8| z4 z2 _BG| B B/2B/2 B/2B/2 BAG-G G| GG GG F2 _E2| C8| z4 z2||\
